X: 35473
T: Roy MacAngus
R: jig
M: 6/8
K: Amajor
|:EAA A2B|cec cBA|FBB BcA|GAB BAF|
EAA A2c|cec cBA|FBB BAc|1 B3 A2F :|2 B3 BAd||
cee e2c|efe cBA|dFB BcA|GAB Bcd|
efe e2c|efe cBA|dFB BAc|B3 Bcd||
efe efe|efe cBA|dFB BcA|GAB BAF|
EAA cAA|caa fec|BAc BAF|ABA A3||

